X:1
T:Title
%%score { ( 1 3 ) | ( 2 4 ) }
L:1/8
M:4/4
K:Eb
V:1 treble nm="Grand Piano"
V:3 treble 
V:2 bass 
V:4 bass 
V:1
 z4 z2[Q:1/4=104] E2 | G2 G2 G3 [FA] | [GB][GB][GB][GB] [Ac][GB] [EG]2 | [DF]2 [DF]2 [DF]3 [EG] | %4
 [FA][FA][FA][FA] [GB][FA] [DF]2 | [EG]2 [GB]2 [Ge]3 [Bd] |[M:3/4] [Ac][ce] [Bd][Ac] [GB][EG] | %7
[M:1/4] [GB][_Gc] |[M:4/4] [Fd]6 z2 |[M:7/8] c- c3 z z2 |[M:1/4] B2 |[M:4/4] e6 z2 | %12
 [Ac]B-[EB-][FB-] [GB]2 [GB]2 | d2- [Fd-][Fd-] [Fd]2 [DF][DAc] | [Ac]B-[EB-][FB-] [G-B]Gcd | %15
 e4 [Bd]2 [Ac]2 | B6 z2 | B6 z2 |[M:3/4] z2 E4 |] %19
V:2
 z4 z2 [E,G,]2 | [E,B,E]2 [E,B,E]2 [E,B,E]3 [E,B,] | [E,E][E,E][E,E][E,E] [E,E][E,E] [E,B,]2 | %3
 [B,,B,]2 [B,,B,]2 [B,,B,]3 [B,,B,] | [B,,B,][B,,B,][B,,B,][B,,B,] [B,,B,][B,,B,] [B,,B,]2 | %5
 [E,B,]2 [E,E]2 [E,B,]3 [E,E] |[M:3/4] [A,E][A,E] [A,E][A,E] [E,E][E,B,] |[M:1/4] [E,B,]2 | %8
[M:4/4] [F,B,]2 F,F, F,2 [F,B,D][F,B,D] |[M:7/8] [F,=A,E][F,A,][F,A,] [F,A,] [B,,B,]3 | %10
[M:1/4] [B,A]2 |[M:4/4] [E,B,]2 [E,B,][E,B,] [E,B,]2 [E,C][E,D] | %12
 [E,E][E,E]G,[B,D] [E,E]2 [E,B,]2 | [B,,B,]2 [B,,B,][B,,B,] [B,,B,]2 [B,,B,]B,, | %14
 [E,E][E,E][E,G,][E,A,] .[E,B,]2[K:treble] AA | G4[K:bass] z4 | E,E,G,B, [E,B,]2[K:treble] EF | %17
 G2[K:bass] [E,B,][E,G,] [B,,F,]2 [B,,A,][B,,B,] |[M:3/4] [E,A,E][E,G,] [E,G,][E,A,] [E,G,]2 |] %19
V:3
 x8 | x8 | x8 | x8 | x8 | x8 |[M:3/4] x6 |[M:1/4] x2 |[M:4/4] z2 B,B, B,2 BB | %9
[M:7/8] z EE E [DB]3 |[M:1/4] x2 |[M:4/4] G2 GG G2 [Ad][Ac] | z G z2 z4 | F2 z2 z4 | z G z2 z .B3 | %15
 z B,B,[EBe] EEEE | [EG][EG][B,E]F G2 GA | z2 GE D2 [DF][DG] |[M:3/4] FE z C B,2 |] %19
V:4
 x8 | x8 | x8 | x8 | x8 | x8 |[M:3/4] x6 |[M:1/4] x2 |[M:4/4] x8 |[M:7/8] x7 |[M:1/4] x2 | %11
[M:4/4] x8 | x8 | x8 | x6[K:treble] x2 | z[K:bass] E,E,G,, A,,B,,C,D, | x6[K:treble] x2 | %17
 x2[K:bass] x6 |[M:3/4] x6 |] %19

